X:1
T:Ecossaise in G
T:Ecossaise in G
T:WoO 23
T:Ludwig van Beethoven
T:Public Domain (PianoXML typeset)
C:Beethoven
Z:Public Domain (PianoXML typeset)
%%score { 1 | 2 }
L:1/8
Q:1/4=126
M:2/4
K:G
V:1 treble nm="Piano"
V:2 bass 
V:1
!mf!"^Allegretto" (!3!B/c/ | .d).B .A.G | .!2!F (!>!e2 d) | .!1!A.B .c.d | .A !>!^A2 (!3!B/c/ | %5
 d).B .A.G | .!2!F (!>!e2 d) | .!1!A.B .c.d | .G z2!fine! |]:!f! (!1!A/B/ | %10
!<(! .!1!!3![Ac]).[Ac].[Ac].[Ac] | (!>![Ac]/!<)!!4!d/!3!c/!2!B/ A) (A/B/ | %12
!<(! .[Ac]).[Ac].[Ac].[Ac] | (!>![Ac]/!<)!d/c/B/ A) (A/B/ | .[Ac]) (!>![Ac]2 [GB]) | %15
 .[Ge] (!>![Ge]2 [Gd]) | .!2!A.B.c.d | G z z!D.C.! :| %18
V:2
 z | .G,.[B,D].[B,D].[B,D] | .D,.[A,C].[A,C].[A,C] | .D,.[F,C].[F,C].[F,C] | .G,.[CD].[CD].[B,D] | %5
 .G,.[B,D].[B,D].[B,D] | .D,.[A,C].[A,C].[A,C] | .D,.[F,C].[F,C].[F,C] | .[G,B,].D, .G,, |]: z | %10
 .!5!D,,.D, .!5!F,,.F, | .A,,.A, .D,.D | .D,,.D, .F,,.F, | .A,,.A, .D,.D | %14
 .[F,D] (!>![F,D]2 [G,D]) | .C, (!>!C2 B,) | .D,.[F,C] .D,.[F,C] | .[G,B,] .!2!D,.!5!G,, :| %18

